icons/.local/share/icons/Tela/scalable/devices/network-server.svg

<svg xmlns="http://www.w3.org/2000/svg" xmlns:xlink="http://www.w3.org/1999/xlink" width="64" height="64"><defs><linearGradient id="a"><stop offset="0"/><stop offset="1" stop-opacity="0"/></linearGradient><linearGradient xlink:href="#a" id="b" x1="37.648" y1="14" x2="60" y2="14" gradientUnits="userSpaceOnUse"/><linearGradient xlink:href="#a" id="c" gradientUnits="userSpaceOnUse" x1="37.648" y1="14" x2="60" y2="14"/><linearGradient xlink:href="#a" id="d" gradientUnits="userSpaceOnUse" x1="37.648" y1="14" x2="60" y2="14" gradientTransform="translate(0 18)"/><linearGradient xlink:href="#a" id="e" gradientUnits="userSpaceOnUse" gradientTransform="translate(0 36)" x1="37.648" y1="14" x2="60" y2="14"/></defs><rect width="18" height="56" x="-59" y="-60" rx="2.5" ry="2.5" transform="matrix(0 -1 -1 0 0 0)" fill="#666"/><path d="M24 47l-4 6M18 47l-4 6M12 47l-4 6M30 47l-4 6" opacity=".5" fill="none" stroke="#000" stroke-width="3" stroke-linecap="round"/><circle cx="40.5" cy="46.5" r="2.5" fill="#76ff03"/><circle cx="47.5" cy="46.5" r="2.5" fill="#ff0"/><circle cx="54.5" cy="46.5" r="2.5" fill="#ffcd40"/><rect width="18" height="56" x="-41" y="-60" rx="2.5" ry="2.5" transform="matrix(0 -1 -1 0 0 0)" fill="#666"/><path d="M24 29l-4 6M18 29l-4 6M12 29l-4 6M30 29l-4 6" opacity=".5" fill="none" stroke="#000" stroke-width="3" stroke-linecap="round"/><circle cx="40.5" cy="28.5" r="2.5" fill="#76ff03"/><circle cx="47.5" cy="28.5" r="2.5" fill="#ff0"/><circle cx="54.5" cy="28.5" r="2.5" fill="#ffcd40"/><g><rect width="18" height="56" x="-23" y="-60" rx="2.5" ry="2.5" transform="matrix(0 -1 -1 0 0 0)" fill="#8e8e8e"/><path d="M24 11l-4 6M18 11l-4 6M12 11l-4 6M30 11l-4 6" opacity=".5" fill="none" stroke="#000" stroke-width="3" stroke-linecap="round"/><circle cx="39.5" cy="10.5" r="2.5" fill="#76ff03"/><circle cx="47.5" cy="10.5" r="2.5" fill="#ff0"/><circle cx="54.5" cy="10.5" r="2.5" fill="#ffcd40"/><path d="M48.482 5a31.16 31.16 0 0 1-10.834 18H57.5c1.385 0 2.5-1.115 2.5-2.5v-13C60 6.115 58.885 5 57.5 5h-9.018z" fill="url(#b)" opacity=".25"/></g><rect width="18" height="56" x="-23" y="-60" rx="2.5" ry="2.5" transform="matrix(0 -1 -1 0 0 0)" fill="#666"/><path d="M24 11l-4 6M18 11l-4 6M12 11l-4 6M30 11l-4 6" opacity=".5" fill="none" stroke="#000" stroke-width="3" stroke-linecap="round"/><circle cx="39.5" cy="10.5" r="2.5" fill="#76ff03"/><circle cx="47.5" cy="10.5" r="2.5" fill="#ff0"/><circle cx="54.5" cy="10.5" r="2.5" fill="#ffcd40"/><path d="M48.482 5a31.16 31.16 0 0 1-10.834 18H57.5c1.385 0 2.5-1.115 2.5-2.5v-13C60 6.115 58.885 5 57.5 5z" opacity=".25" fill="url(#c)"/><path d="M48.482 23a31.16 31.16 0 0 1-10.834 18H57.5c1.385 0 2.5-1.115 2.5-2.5v-13c0-1.385-1.115-2.5-2.5-2.5z" opacity=".25" fill="url(#d)"/><path d="M48.482 41a31.16 31.16 0 0 1-10.834 18H57.5c1.385 0 2.5-1.115 2.5-2.5v-13c0-1.385-1.115-2.5-2.5-2.5z" opacity=".25" fill="url(#e)"/></svg>

<svg width="64" height="64" version="1.1" xmlns="http://www.w3.org/2000/svg" xmlns:xlink="http://www.w3.org/1999/xlink">
 <defs>
  <linearGradient id="b" x1="37.648" x2="60" y1="14" y2="14" gradientUnits="userSpaceOnUse">
   <stop offset="0"/>
   <stop stop-opacity="0" offset="1"/>
  </linearGradient>
 </defs>
 <rect transform="matrix(0 -1 -1 0 0 0)" x="-59" y="-60" width="18" height="56" rx="2.5" ry="2.5" fill="#666"/>
 <path d="m24 47-4 6m-2-6-4 6m-2-6-4 6m22-6-4 6" fill="none" opacity=".5" stroke="#000" stroke-linecap="round" stroke-width="3"/>
 <circle cx="40.5" cy="46.5" r="2.5" fill="#76ff03"/>
 <circle cx="47.5" cy="46.5" r="2.5" fill="#ff0"/>
 <circle cx="54.5" cy="46.5" r="2.5" fill="#ffcd40"/>
 <rect transform="matrix(0 -1 -1 0 0 0)" x="-41" y="-60" width="18" height="56" rx="2.5" ry="2.5" fill="#666"/>
 <path d="m24 29-4 6m-2-6-4 6m-2-6-4 6m22-6-4 6" fill="none" opacity=".5" stroke="#000" stroke-linecap="round" stroke-width="3"/>
 <circle cx="40.5" cy="28.5" r="2.5" fill="#76ff03"/>
 <circle cx="47.5" cy="28.5" r="2.5" fill="#ff0"/>
 <circle cx="54.5" cy="28.5" r="2.5" fill="#ffcd40"/>
 <rect transform="matrix(0 -1 -1 0 0 0)" x="-23" y="-60" width="18" height="56" rx="2.5" ry="2.5" fill="#8e8e8e"/>
 <path d="m24 11-4 6m-2-6-4 6m-2-6-4 6m22-6-4 6" fill="none" opacity=".5" stroke="#000" stroke-linecap="round" stroke-width="3"/>
 <circle cx="39.5" cy="10.5" r="2.5" fill="#76ff03"/>
 <circle cx="47.5" cy="10.5" r="2.5" fill="#ff0"/>
 <circle cx="54.5" cy="10.5" r="2.5" fill="#ffcd40"/>
 <path d="M48.482 5a31.16 31.16 0 0 1-10.834 18H57.5c1.385 0 2.5-1.115 2.5-2.5v-13C60 6.115 58.885 5 57.5 5h-9.018z" fill="url(#b)" opacity=".25"/>
 <rect transform="matrix(0 -1 -1 0 0 0)" x="-23" y="-60" width="18" height="56" rx="2.5" ry="2.5" fill="#666"/>
 <path d="m24 11-4 6m-2-6-4 6m-2-6-4 6m22-6-4 6" fill="none" opacity=".5" stroke="#000" stroke-linecap="round" stroke-width="3"/>
 <circle cx="39.5" cy="10.5" r="2.5" fill="#76ff03"/>
 <circle cx="47.5" cy="10.5" r="2.5" fill="#ff0"/>
 <circle cx="54.5" cy="10.5" r="2.5" fill="#ffcd40"/>
</svg>
